src/assets/duotone/LinkSquare.svg

<svg width="24" height="24" viewBox="0 0 24 24"  xmlns="http://www.w3.org/2000/svg">
<path opacity="0.4" d="M16.1898 2H7.81978C4.17978 2 2.00977 4.17 2.00977 7.81V16.18C2.00977 19.82 4.17978 21.99 7.81978 21.99H16.1898C19.8298 21.99 21.9998 19.82 21.9998 16.18V7.81C21.9998 4.17 19.8298 2 16.1898 2Z" />
<path d="M8.18009 16.77C8.16009 16.77 8.1301 16.77 8.1101 16.77C7.1401 16.68 6.2301 16.23 5.5501 15.51C3.9501 13.83 3.9501 11.1 5.5501 9.41998L7.7401 7.11996C8.5201 6.29996 9.5701 5.83997 10.6901 5.83997C11.8101 5.83997 12.8601 6.28996 13.6401 7.11996C15.2401 8.79996 15.2401 11.53 13.6401 13.21L12.5501 14.36C12.2601 14.66 11.7901 14.67 11.4901 14.39C11.1901 14.1 11.1801 13.63 11.4601 13.33L12.5501 12.18C13.6101 11.07 13.6101 9.25997 12.5501 8.15997C11.5601 7.11997 9.8201 7.11997 8.8201 8.15997L6.6301 10.46C5.5701 11.57 5.5701 13.38 6.6301 14.48C7.0601 14.94 7.64009 15.22 8.25009 15.28C8.66009 15.32 8.96009 15.69 8.92009 16.1C8.89009 16.48 8.56009 16.77 8.18009 16.77Z" />
<path d="M13.3102 18.1599C12.1902 18.1599 11.1402 17.7099 10.3602 16.8799C8.76016 15.1999 8.76016 12.4699 10.3602 10.7899L11.4502 9.63991C11.7402 9.33991 12.2102 9.32988 12.5102 9.60988C12.8102 9.89988 12.8201 10.3699 12.5401 10.6699L11.4502 11.8199C10.3902 12.9299 10.3902 14.7399 11.4502 15.8399C12.4402 16.8799 14.1801 16.8899 15.1801 15.8399L17.3702 13.5399C18.4302 12.4299 18.4302 10.6199 17.3702 9.51989C16.9402 9.05989 16.3602 8.7799 15.7502 8.7199C15.3402 8.6799 15.0402 8.30989 15.0802 7.89989C15.1202 7.48989 15.4801 7.17991 15.9001 7.22991C16.8701 7.32991 17.7802 7.76989 18.4602 8.48989C20.0602 10.1699 20.0602 12.8999 18.4602 14.5799L16.2702 16.8799C15.4802 17.7099 14.4302 18.1599 13.3102 18.1599Z" />
</svg>

<?xml version="1.0" encoding="UTF-8"?>
<svg width="24" height="24" viewBox="0 0 24 24" xmlns="http://www.w3.org/2000/svg">
 <path d="m16.19 2h-8.37c-3.64 0-5.81 2.17-5.81 5.81v8.37c0 3.64 2.17 5.81 5.81 5.81h8.37c3.64 0 5.81-2.17 5.81-5.81v-8.37c0-3.64-2.17-5.81-5.81-5.81z" opacity=".4"/>
 <path d="m8.1801 16.77h-0.06999c-0.97-0.09-1.88-0.54-2.56-1.26-1.6-1.68-1.6-4.41 0-6.09l2.19-2.3c0.78-0.82 1.83-1.28 2.95-1.28s2.17 0.44999 2.95 1.28c1.6 1.68 1.6 4.41 0 6.09l-1.09 1.15c-0.29 0.3-0.76 0.31-1.06 0.03-0.3-0.29-0.31-0.76-0.03-1.06l1.09-1.15c1.06-1.11 1.06-2.92 0-4.02-0.99-1.04-2.73-1.04-3.73 0l-2.19 2.3c-1.06 1.11-1.06 2.92 0 4.02 0.43 0.46 1.01 0.74 1.62 0.8 0.41 0.04 0.71 0.41 0.67 0.82-0.03 0.38-0.36 0.67-0.74 0.67z"/>
 <path d="m13.31 18.16c-1.12 0-2.17-0.45-2.95-1.28-1.6-1.68-1.6-4.41 0-6.09l1.09-1.15c0.29-0.3 0.76-0.31003 1.06-0.03003 0.3 0.29 0.3099 0.76002 0.0299 1.06l-1.0899 1.15c-1.06 1.11-1.06 2.92 0 4.02 0.99 1.04 2.7299 1.05 3.7299 0l2.1901-2.3c1.06-1.11 1.06-2.92 0-4.02-0.43-0.46-1.01-0.73999-1.62-0.79999-0.41-0.04-0.71-0.41001-0.67-0.82001s0.3999-0.71998 0.8199-0.66998c0.97 0.1 1.8801 0.53998 2.5601 1.26 1.6 1.68 1.6 4.41 0 6.09l-2.19 2.3c-0.79 0.83-1.84 1.28-2.96 1.28z"/>
</svg>
